X:1
T:Seigneur, entends ma prière
T:Seigneur, entends ma prière
T:André Vierendeels (01/12/10)
C:André Vierendeels
C:(01/12/10)
%%score [ 1 2 3 4 ]
L:1/8
Q:1/4=120
M:2/2
K:C
V:1 treble nm="Soprano" snm="S"
V:2 treble nm="Alto" snm="A"
V:3 treble-8 nm="Tenor" snm="T"
V:4 bass nm="Bass" snm="B"
V:1
 z4 B4 | c4 B4 | A4 G2 A2 | F8 | !fermata!E4 G4 | A4 B4 | G4 A2 c2 | B8 | !fermata!A4 A4 | c4 B4 | %10
w: Sei-|gneur, en-|tends ma pri-|è-|re par|ta bon-|té sin- gu-|liè-|re; Et|quand ma|
 A4 A2 ^G2 | !fermata!A4 E2 F2 | G4 A4 | A4 ^G4 | !fermata!A4 A4 | ^G4 A4 | B4 c2 B2 | A8 | %18
w: voix mon- te'à|toi, ne t'é-|loi- gne|pas de|moi. Dans|ma dou-|leur sans pa-|reil-|
 !fermata!G4 G4 | G4 E4 | F4 G2 E2 | F8 | !fermata!E4 E4 | A4 G4 | G4 A2 B2 | c8 | !fermata!B4 G4 | %27
w: le, tour-|ne vers|moi ton o-|reil-|le; Viens,|hâ- te|toi, je te|pri-|e, de|
 A4 G4 | E4 G2 G2 | F8 | !fermata!E8 |] %31
w: m'ex- au-|cer quand je|cri-|e.|
V:2
 z4 G4 | E6 D2 | F4 E4 | D4 C2 B,2 | !fermata!C4 G4 | F4 D4 | E4 E4 | ^G2 A4 G2 | !fermata!E4 C4 | %9
w: gneur,|en- tends|ma pri-|è- re *|par ta|bon- té|sin- gu-|liè- re; *|Et quand|
 E4 D4 | F4 E2 E2 | !fermata!E4 B,2 D2 | E4 E4 | F4 E4 | !fermata!E4 F4 | E4 E4 | G4 E2 D2 | %17
w: ma voix|mon- te'à toi,|ne t'é- loi-|gne pas|de moi.|Dans ma|dou- leur|sans pa- reil-|
 C4 F4 | !fermata!D4 E4 | B,4 C4 | C4 B,4 | C2 F2 D2 A,2 | !fermata!C4 E4 | C4 D4 | E4 D4 | %25
w: le, *|tour- ne|vers moi|ton o-|reil- * le; *|Viens, hâ-|te toi,|je te|
 E2 D2 E2 F2 | !fermata!D4 E4 | E4 E4 | B,4 E4 | D2 C2 D4 | !fermata!A,8 |] %31
w: pri- _ e, *|de m'ex-|au- cer|quand je|cri- _ e.|Sei-|
V:3
 z4 B4 | G6 AB | c6 c2 | A2 G2 F2 G2 | !fermata!A4 B4 | c4 B2 d2 | c4 c4 | e2 A2 B2 e2 | %8
w: gneur,|en- en- *|ma pri-|è * re _|par ta|ta té *|sin- gu-|liè- * re; *|
 !fermata!c4 A4 | G4 G4 | A4 B2 B2 | !fermata!c4 G2 A2 | c4 c4 | A4 B4 | !fermata!c4 A4 | B4 c4 | %16
w: Et quand|ma voix|mon- te'à toi,|ne t'é- loi-|gne pas|de moi.|Dans ma-|dou- leur|
 d4 G2 G2 | A8 | !fermata!B4 c4 | G4 G4 | A4 G4 | A2 F2 A2 D2 | !fermata!A4 B4 | A4 B4 | G4 F4 | %25
w: sans pa- reil-|le,|tour- ne|vers moi|ton o-|reil- * le; *|Viens, hâ-|te toi,|je te|
 G2 F2 G2 A2 | !fermata!G4 B4 | c4 G4 | G4 G4 | B2 G2 A2 B2 | !fermata!c8 |] %31
w: pri- _ e, *|de m'ex-|au- cer|quand je|cri- _ e. *|Sei-|
V:4
 z4 E,4 | C,4 G,,4 | F,,G,,A,,B,, C,2 A,,2 | D,2 E,2 F,2 G,2 | !fermata!A,4 E,4 | F,4 G,4 | %6
w: geur,|en- tends|ma _ _ _ _ _|pri- è- re *|par ta|bon- té|
 C,4 A,,4 | E,2 D,2 E,4 | !fermata!A,,4 A,,4 | C,4 G,4 | D,4 E,2 E,2 | !fermata!A,4 E,2 D,2 | %12
w: sin- gu-|liè * re;|Et quand|ma voix|mon- te'à toi,|ne t'é- loi-|
 C,4 A,,4 | D,4 E,4 | !fermata!A,4 D,4 | E,4 A,4 | G,4 C,2 E,2 | F,4 D,4 | !fermata!G,,4 C,4 | %19
w: gne pas|de moi.|Dans ma|dou- leur|sans pa- reil-|le, *|tour- ne|
 E,4 C,4 | F,4 E,4 | F,2 A,2 D,2 F,2 | !fermata!A,4 E,4 | A,4 G,4 | C,4 D,2 D,2 | C,8 | %26
w: vers moi|ton o-|reil- * le; *|Viens, hâ-|te toi,|je te pri-|e,|
 !fermata!G,,4 E,4 | A,,4 C,4 | E,4 C,4 | G,2 C,2 D,4 | !fermata!A,,8 |] %31
w: de m'ex-|au- cer|quand je|cri- _ e.||

